X: 32698
T: Polka A Nord-Ovest
R: polka
M: 2/4
K: Bminor
f|:B>d cA|Bd f>g|ag fe|f/g/f/d/ BA|
B>d cA|Bd f>g|ag fe|f2 fd:|
ee fe|d2 df|cB BA|Bd fd|
ee fe|d2 df|cB BA|1 B3 d:|2 B4||

